icons/svg/format-list-numbers.svg

﻿<?xml version="1.0" encoding="utf-8"?>
<!DOCTYPE svg PUBLIC "-//W3C//DTD SVG 1.1//EN" "http://www.w3.org/Graphics/SVG/1.1/DTD/svg11.dtd">
<svg xmlns="http://www.w3.org/2000/svg" xmlns:xlink="http://www.w3.org/1999/xlink" version="1.1" baseProfile="full" width="24" height="24" viewBox="0 0 24.00 24.00" enable-background="new 0 0 24.00 24.00" xml:space="preserve">
	<path fill="#000000" fill-opacity="1" stroke-width="0.2" stroke-linejoin="round" d="M 6.99938,12.998L 20.9994,12.998L 20.9994,10.998L 6.99938,10.998M 6.99938,18.998L 20.9994,18.998L 20.9994,16.998L 6.99938,16.998M 6.99938,6.99805L 20.9994,6.99805L 20.9994,4.99805L 6.99938,4.99805M 1.99938,10.998L 3.79939,10.998L 1.99938,13.0981L 1.99938,13.998L 4.99938,13.998L 4.99938,12.998L 3.19938,12.998L 4.99938,10.898L 4.99938,9.99805L 1.99938,9.99805M 2.99938,7.99805L 3.99938,7.99805L 3.99938,3.99805L 1.99938,3.99805L 1.99938,4.99805L 2.99938,4.99805M 1.99938,16.998L 3.99938,16.998L 3.99938,17.498L 2.99938,17.498L 2.99938,18.498L 3.99938,18.498L 3.99938,18.998L 1.99938,18.998L 1.99938,19.998L 4.99938,19.998L 4.99938,15.998L 1.99938,15.998L 1.99938,16.998 Z "/>
</svg>

<svg xmlns="http://www.w3.org/2000/svg" version="1.1" baseProfile="full" width="24" height="24" viewBox="0 0 24.00 24.00" xml:space="preserve"><path fill="#000" fill-opacity="1" stroke-width=".2" stroke-linejoin="round" d="M7 12.998h14v-2H7m0 8h14v-2H7m0-10h14v-2H7m-5 6h1.8l-1.8 2.1v.9h3v-1H3.2l1.8-2.1v-.9H2m1-2h1v-4H2v1h1m-1 12h2v.5H3v1h1v.5H2v1h3v-4H2v1z"/></svg>
